X:1
T:O salutaris hostia - Palestrina
T:James Gibb editions
T:#
%%score [ 1 2 3 4 ]
L:1/8
Q:1/4=90
M:4/4
K:C
V:1 treble nm="Soprano" snm="S"
V:2 treble nm="Alto" snm="A"
V:3 treble-8 nm="Tenor" snm="T"
V:4 bass nm="Bass" snm="B"
V:1
"^O salutaris hostia""^G. P. da Palestrina\n(1526-94)"!p! d8 | !>!e3 d c2 B2 | (A2 BA/G/ A4 | %3
w: O|sa- lu- ta- ris|ho\- * * * *|
 c2) G2 G4 | (A2 B2 c3) c |[M:4/4] B2!mf! d4 !>!e2 | c2 !>!d2 B4 | (A4 B2 G2- | G2 FG A2) A2 | %9
w: * sti- a,|ho\- * * sti-|a, Quae coe-|li pan- dis|o\- * *|* * * * sti-|
 G4 z4 | z4!p! D4 | !>!C3 D E2 G2 | (^F2 G4) F2 | G4 G3 B | c2 B2 c3 c | B6 c2 | (A2 B2) c2 z2 | %17
w: um,|O|sa- lu- ta- ris|ho\- * sti-|a, sa- lu-|ta- ris ho- sti-|a, quae|coe\- * li,|
!mf! d4 e2 c2 | d2!>(! B2 c3 c!>)! | B8 | z2!mf! (G3 F D2 | E4) D4 | z2 (G3 F D2 | E4 D4 | %24
w: quae coe- li|pan- dis o- sti-|um:|Bel\- * *|* la,|bel\- * *|* la|
 z2 C2 D2 D2 | E2 ^F2 G4 | z2 C2 D2 D2 | E2 ^F2 G4- | G4 z4 | z2 G2 A4 |!<(! B4 c2!<)! c2 | %31
w: pre- munt ho-|sti- li- a,|pre- munt ho-|sti- li- a,||Da ro-|bur, fer au-|
 d4 c3 B | A2) d2 G2!f! G2 | A4 B4 | c2 c2 (d4 | c3 B A2) d2 | G2 (c3 B A2) | (BA G4) ^F2 | %38
w: xi\- * *|* li- um, da|ro- bur,|fer ae- xi\-|* * * li-|um, au\- * *|xi\- * * li-|
 (G=FED C2)!mf! c2 | (B3 A G2 c2- | c2) B2 c2 G2 | A4 B4 | c2 c2 (d4 | c3 B A2) d2 | %44
w: um, * * * * au-|xi\- * * *|* li- um, da|ro- bur,|fer au- xi\-|* * * li-|
 G4 z2[Q:1/4=89] A2 |[Q:1/4=87]!<(! B3[Q:1/4=85] (A/[Q:1/4=85]B/)!<)![Q:1/4=84] c2[Q:1/4=82] (A2- | %46
w: um, au-|xi- li\- * um, au\-|
[Q:1/4=81] A[Q:1/4=80]G)[Q:1/4=78]!>(! G4[Q:1/4=76] ^F2!>)! |[Q:1/4=76] !fermata!G8 |] %48
w: * * xi- li-|um.|
V:2
 z4!p! D4 | !>!C3 D E2 G2 | (^F2 G4 F2 | G3 =F E2) (D2- | DC B,2) A,4 |[M:4/4] z4!mf! G4 | %6
w: O|sa- lu- ta- ris|ho\- * *|* * * sti\-|* * * a,|Quae|
 A2 F2 G4 | (E2 F2) (D4 | E2 C2 F2) F2 | E4 z4 |!p! D8 | !>!E3 D C2 B,2 | (A,2 G,2 A,2) D2 | %13
w: coe- li pan-|dis * o\-|* * * sti-|um,|O|sa- lu- ta- ris|ho\- * * sti-|
 G,2 C4 D2 | A,2 B,2 (A,4 | D2) D2 E4 | z2!mf! G4 !>!A2 | F2 !>!G2 E2 (A2- | AG G4) ^F2 | %19
w: a, sa- lu-|ta- ris ho\-|* sti- a,|quae coe-|li pan- dis o\-|* * * sti-|
 G2!mf! (G3 =F D2 | E4) D4 | z2 (G3 F D2 | E4) D4 | z2 C2 D2 D2 | E2 ^F2 G4 | z2 C2 D2 D2 | %26
w: um: Bel\- * *|* la,|bel\- * *|* la|pre- munt ho-|sti- li- a,|pre- munt ho-|
 E2 ^F2 G4 | z2 C2 D4 |!<(! E4 =F2 F2!<)! | (G4 F3 E | D2) G2 C2 (F2- | FE D2) E4 | %32
w: sti- li- a,|Da ro-|bur, fer au-|xi\- * *|* li- um, fer|* * * au-|
 (F3 E/D/ EF G2- | G2 ^F2 G4 | z4 z2!f! D2 | E4 F4 | G2 G2 (A4 | G3 F E2) A2 | D4 z2!mf! C2 | %39
w: xi\- * * * * *|* li- um,|da|ro- bur,|fer au- xi\-|* * * li-|um, da-|
 D4 E4 | F2 F2 G4 | F3 E D2) G2 | C4 z2 D2 | E3 (D/E/) F4 | z2 C4!<(! D2 | D3!<)! (C/D/) E2 E2 | %46
w: ro- bur,|fer au- xi\-|* * * li-|um, au-|xi- li\- * um,|fer au-|xi- li\- * um, au-|
!>(! D6!>)! D2 | !fermata!D8 |] %48
w: xi- li-|um.|
V:3
 z8 | z8 |!p! d8 | !>!e3 d c2 B2 | A2 G2 (A2 d2- |[M:4/4][K:treble-8] dc BA B4) | z2!mf! d4 !>!e2 | %7
w: ||O|sa- lu- ta- ris|ho- sti- a, *||Quae coe-|
 c2 !>!d2 B4 | c2 A2 A2 (dc | BA G2!>(! AB c2- | c2 BA B4!>)! | c6 G2 | d4 z2!p! D2 | %13
w: li pan- dis|o- sti- um, o\- *|||* sti-|um, O|
 !>!C3 D E2 G2 | (^F2 G4) F2 | G4 z4 |!mf! d4 e2 c2 | d2 B2 c2 A2 | B4!>(! A3) A!>)! | G8 | %20
w: sa- lu- ta- ris|ho\- * sti-|a,|quae coe- li|pan- dis o\- *|* * sti-|um:|
 z2!mf! (G3 A B2 | c2 C2) G4 | z2 (G3 A B2 | c2 C2) G4 | z2 c2 c2 B2 | A3 A G4 | z2 c2 c2 B2 | %27
w: Bel\- * *|* * la,|bel\- * *|* * la|pre- munt ho-|sti- li- a,|pre- munt ho-|
 (A4 GA BA/B/ | c3 B A2 d2 | c3 B A4 | z2!<(! G2 A4!<)! | B4 c2 c2 | (d4 c3 B | A2 d2 G2!f! G2- | %34
w: sti\- * * * * *|* li- a, ho-|sti- li- a,|Da ro-|bur, fer au-|xi\- * *|* li- um, fer|
 G2 FE D2) G2 | EE C2 z2 D2 | E4 F4 | G2 G2 A4 |!>(! G3 F E2)!>)! A2 | D4 z4 | z2!mf! D2 E4 | %41
w: * * * * au-|xi- li- um, da|ro- bur,|fer au- xi\-|* * * li-|um,|da ro-|
 F4 G2 G2 | (A4 G3 F | E2 A2 D2 D2 | E3 (D/E/)!<(! F4 | z2!<)! G2 A3 G/A/) | B2 B2!>(! A3 A!>)! | %47
w: bur, fer au-|xi\- * *|* li- um, au-|xi- li\- * um,|au- xi- li\- *|um, au- xi- li-|
 !fermata!G8 |] %48
w: um.|
V:4
 z8 | z8 | z4!p! D,4 | C,3 D, E,2 G,2 | (^F,2 G,4) F,2 |[M:4/4] G,8 | z4!mf! G,4 | A,2 =F,2 G,4 | %8
w: ||O|sa- lu- ta- ris|ho\- * sti-|a,|Quae|coe- li pan-|
 (E,2 F,2) (D,4 | E,4!>(! F,4 | G,6)!>)! G,2 | C,4 z4 |!p! D,8 | !>!E,3 D, C,2 B,,2 | %14
w: dis * o\-||* sti-|um,|O|sa- lu- ta- ris|
 (A,,2 G,,2 A,,3) A,, | G,,2!mf! G,4 !>!A,2 | F,2 !>!G,2 E,2 (F,2 | D,2 G,2 C,4 | z8 | %19
w: ho\- * * sti-|a, quae coe-|li pan- dis o\-|* sti- um:||
 z2!mf! (G,3 A, B,2 | C2 C,2) G,4 | z2 G,3 A, B,2 | C2 C,2) G,4 | z2 C2 C2 B,2 | A,3 A, G,4 | %25
w: Bel\- * *|* * la,|bel\- * *|* * la|pre- munt ho-|sti- li- a,|
 z2 C2 C2 B,2 | A,3 A, G,4 | z8 | z2 C,2 D,4 |!<(! E,4 F,2 F,2!<)! | (G,4 F,3 E, | D,2) G,2 C,4 | %32
w: pre- munt ho-|sti- li- a,||Da ro-|bur, fer au-|xi\- * *|* li- um,|
 z8 | z4 z2!f! G,2 | A,4 B,4 | C2 C2 (D4 | C3 B, A,2) D2 | G,4 z4 | z2!mf! G,,2 A,,4 | %39
w: |da|ro- bur,|fer au- xi\-|* * * li-|um,|da ro-|
 B,,4 C,2 C,2 | (D,4 C,3 B,, | A,,2) D,2 G,,2 z2 | z2 A,,2 B,,3 (A,,/B,,/) | C,4 z2 F,2 | %44
w: bur, fer au-|xi\- * *|* li- um,|au- xi- li\- *|um, au-|
 G,3 (F,/G,/)!<(! A,4!<)! | G,4 C,4 |!>(! D,6!>)! D,2 | !fermata!G,,8 |] %48
w: xi- li\- * um,|fer au-|xi- li-|um.|

